LunaSvgTest/svgs/grid fit candidates/icons8-fluency-table.svg

<svg xmlns="http://www.w3.org/2000/svg"  viewBox="0 0 48 48" width="48px" height="48px"><linearGradient id="yTOJ6rWnKEl3fjxTg5ylTa" x1="20.786" x2="27.214" y1="5.774" y2="42.226" gradientUnits="userSpaceOnUse"><stop offset="0" stop-color="#fafafb"/><stop offset=".293" stop-color="#f6f7f8"/><stop offset=".566" stop-color="#ebecee"/><stop offset=".832" stop-color="#d8dcdf"/><stop offset="1" stop-color="#c8cdd1"/></linearGradient><path fill="url(#yTOJ6rWnKEl3fjxTg5ylTa)" d="M40.002,39.971L8.029,40.002L7.998,8.029l31.972-0.031L40.002,39.971z"/><linearGradient id="yTOJ6rWnKEl3fjxTg5ylTb" x1="20.439" x2="27.561" y1="3.806" y2="44.194" gradientUnits="userSpaceOnUse"><stop offset="0" stop-color="#33bef0"/><stop offset="1" stop-color="#22a5e2"/></linearGradient><path fill="url(#yTOJ6rWnKEl3fjxTg5ylTb)" d="M41.969,7.996C41.968,6.898,41.069,6,39.971,6c-0.001,0-0.001,0-0.002,0L7.996,6.031 C6.897,6.032,5.999,6.932,6,8.031l0.031,31.973C6.032,41.102,6.931,42,8.029,42c0.001,0,0.001,0,0.002,0l31.973-0.031 c1.099-0.001,1.997-0.901,1.996-2L41.969,7.996z M20,28v-8h8v8H20z M28,31v8h-8v-8H28z M17,28H9v-8h8V28z M31,20h8v8h-8V20z M39,17 h-8V9h8V17z M28,9v8h-8V9H28z M17,9v8H9V9H17z M9,31h8v8H9V31z M31,39v-8h8v8H31z"/></svg>

<?xml version="1.0" encoding="UTF-8" standalone="no"?>
<svg
   xmlns="http://www.w3.org/2000/svg"
   viewBox="0 0 48 48"
   width="48px"
   height="48px"
   version="1.1"
   id="svg877">
  <defs
     id="defs881" />
  <linearGradient
     id="yTOJ6rWnKEl3fjxTg5ylTa"
     x1="20.786"
     x2="27.214"
     y1="5.774"
     y2="42.226"
     gradientUnits="userSpaceOnUse">
    <stop
       offset="0"
       stop-color="#fafafb"
       id="stop857" />
    <stop
       offset=".293"
       stop-color="#f6f7f8"
       id="stop859" />
    <stop
       offset=".566"
       stop-color="#ebecee"
       id="stop861" />
    <stop
       offset=".832"
       stop-color="#d8dcdf"
       id="stop863" />
    <stop
       offset="1"
       stop-color="#c8cdd1"
       id="stop865" />
  </linearGradient>
  <path
     fill="url(#yTOJ6rWnKEl3fjxTg5ylTa)"
     d="M40.002,39.971L8.029,40.002L7.998,8.029l31.972-0.031L40.002,39.971z"
     id="path868" />
  <linearGradient
     id="yTOJ6rWnKEl3fjxTg5ylTb"
     x1="20.439"
     x2="27.561"
     y1="3.806"
     y2="44.194"
     gradientUnits="userSpaceOnUse">
    <stop
       offset="0"
       stop-color="#33bef0"
       id="stop870" />
    <stop
       offset="1"
       stop-color="#22a5e2"
       id="stop872" />
  </linearGradient>
  <path
     fill="url(#yTOJ6rWnKEl3fjxTg5ylTb)"
     d="M 42,8 C 41.999,6.902 41.069,6 39.971,6 H 40 8 C 6.901,6.001 5.999,6.901 6,8 v 32 c 0.001,1.098 0.931,2 2.029,2 H 8 40 c 1.099,-10e-4 2.001,-0.901 2,-2 z M 20,28 v -8 h 8 v 8 z m 8,3 v 8 H 20 V 31 Z M 17,28 H 9 v -8 h 8 z m 14,-8 h 8 v 8 h -8 z m 8,-3 H 31 V 9 h 8 z M 28,9 v 8 H 20 V 9 Z M 17,9 v 8 H 9 V 9 Z M 9,31 h 8 v 8 H 9 Z m 22,8 v -8 h 8 v 8 z"
     id="path875" />
</svg>
